icons/parcel.svg

<svg width="16" height="16" viewBox="0 0 16 16" fill="none" xmlns="http://www.w3.org/2000/svg">
<path d="M2.5 6L7.5 8V14L2.5 12V6Z" fill="#D9AA79"/>
<path d="M13.5 6L8.5 8V14L13.5 12V6Z" fill="#AF835E"/>
<path d="M8 3L3 5L8 7L13 5L8 3Z" fill="#997354"/>
</svg>

<svg xmlns="http://www.w3.org/2000/svg" width="16" height="16" fill="none"><path fill="#D9AA79" d="m2.5 6 5 2v6l-5-2V6Z"/><path fill="#AF835E" d="m13.5 6-5 2v6l5-2V6Z"/><path fill="#997354" d="M8 3 3 5l5 2 5-2-5-2Z"/></svg>
